X: 4305
T: Boffyflow And Spike
R: reel
M: 4/4
K: Dmixolydian
FEFG ABcd|cBAG AGFD|F3G ABcd|cBAG c3z|
F3G ABcd|cBAG AGFD|fede dcAG|AGF2 D3z:|
d3e dcAG|Adde dcde|=fedc dcAG|AcdB c2AG|
d3e dcAG|Acde dcde|=fedc dcAG|AGF2 D3z:|

